Hatter-kde-dark/actions/22/layer-visible-on.svg

<?xml version="1.0" encoding="UTF-8"?>
<svg viewBox="0 0 22 22" xmlns="http://www.w3.org/2000/svg">
 <defs id="defs3051">
  <style id="current-color-scheme" type="text/css">.ColorScheme-Text {
        color:#dedede;
      }</style>
 </defs>
 <path class="ColorScheme-Text" d="m4 3-3 4h17l3-4h-17zm0 6-3 4h17l3-4h-17zm0 6-3 4h17l3-4h-17z" fill="currentColor"/>
</svg>

<svg xmlns="http://www.w3.org/2000/svg" viewBox="0 0 22 22">
  <defs id="defs3051">
    <style type="text/css" id="current-color-scheme">
      .ColorScheme-Text {
        color:#dedede;
      }
      </style>
  </defs>
 <path 
     style="fill:currentColor;fill-opacity:1;stroke:none" 
     d="M 4 3 L 1 7 L 18 7 L 21 3 L 4 3 z M 4 9 L 1 13 L 18 13 L 21 9 L 4 9 z M 4 15 L 1 19 L 18 19 L 21 15 L 4 15 z "
     class="ColorScheme-Text"
     />
</svg>
